!! 00000] TT[00
!! NN
!!!OTL: Siji dushu ge
!!!ARE: Asia, China,ÿHubei, Hongan
!! Ethnic Group: Han
!! I, 407
!!!SCT: C0108
!!!YEM: Copyright 1995, estate of Helmut Schaffrath.
**kern
*ICvox
*Ivox
*M2/4
*k[f#]
*G:
{4ee
8dd
8b
=1
4ee
8dd
8b
=2
8a
8a
16b
16dd
16b
16a
=3
2g}
=4
{4dd
8e
8d
=5
8.g
16a
16b
16a
16b
16dd
=6
2a}
=7
{4ee
8dd
8b
=8
4ee
8dd
8b
=9
8a
8a
16b
16dd
16b
16a
=10
4.g}
{8e
=11
8g
8g
8g
8e
=12
8dd
16dd
16ee
8b
8a
=13
8g
16g
16a
16b
16a
16b
16dd
=14
2a}
=15
{8b
8g
8a
8a
=16
16g
16a
16b
16dd
4a
=17
8e
16d
16e
16a
16g
8e
=18
2d}
==
!!!AGN: Xiaodiao, Yuelang diao. Geming lishi minge
!! neues Volkslied. Die Melodie wurde aber schon in der Ming-Dynastie
!!    gesungen.
!!    Vereinzelt Verzierungen.
!!!ONB: ESAC (Essen Associative Code) Database: CHINA
!!!AMT: simple duple
!!!AIN: vox
!!!EED: Helmut Schaffrath
!!!EEV: 1.0
*-
